logo/dark.svg

<svg width="56" height="36" xmlns="http://www.w3.org/2000/svg" fill="none">
 <defs>
  <linearGradient y2="0.88044" x2="0" y1="0.07609" x1="0.95833" id="paint0_linear_478_10567">
   <stop stop-color="#701EFC"/>
   <stop stop-color="#CBB3F3" offset="1"/>
  </linearGradient>
  <linearGradient y2="0.41933" x2="-0.12733" y1="0.08927" x1="1.06785" id="paint1_linear_478_10567">
   <stop stop-color="#ECE0FF"/>
   <stop stop-color="#7C3AED" offset="1"/>
  </linearGradient>
  <linearGradient y2="-0.07446" x2="0.31566" y1="0.82856" x1="0.95299" id="paint2_linear_478_10567">
   <stop stop-color="#7C3AED"/>
   <stop stop-color="#ECE0FF" offset="1"/>
  </linearGradient>
 </defs>
 <g>
  <title>Layer 1</title>
  <path id="svg_1" fill="url(#paint0_linear_478_10567)" d="m38.3478,4.69565l-20.3478,0c-7.3478,0 -13.30435,5.95655 -13.30435,13.30435c0,7.3478 5.95655,13.3043 13.30435,13.3043l20.3478,0c7.3478,0 13.3044,-5.9565 13.3044,-13.3043c0,-7.3478 -5.9566,-13.30435 -13.3044,-13.30435zm-20.3478,-4.69565c-9.94112,0 -18,8.05888 -18,18c0,9.9411 8.05887,18 18,18l20.3478,0c9.9412,0 18,-8.0589 18,-18c0,-9.94112 -8.0588,-18 -18,-18l-20.3478,0z" clip-rule="evenodd" fill-rule="evenodd"/>
  <path id="svg_2" fill="url(#paint1_linear_478_10567)" d="m24.2609,17.9999c0,1.7289 -1.4016,3.1305 -3.1305,3.1305c-1.7289,0 -3.1304,-1.4016 -3.1304,-3.1305c0,-1.7288 1.4015,-3.1304 3.1304,-3.1304c1.7289,0 3.1305,1.4016 3.1305,3.1304z"/>
  <path id="svg_3" fill="url(#paint2_linear_478_10567)" d="m38.3507,17.9999c0,1.7289 -1.4015,3.1305 -3.1304,3.1305c-1.7289,0 -3.1305,-1.4016 -3.1305,-3.1305c0,-1.7288 1.4016,-3.1304 3.1305,-3.1304c1.7289,0 3.1304,1.4016 3.1304,3.1304z"/>
 </g>
</svg>

<svg width="164" height="36" viewBox="0 0 164 36" fill="none" xmlns="http://www.w3.org/2000/svg">
<path fill-rule="evenodd" clip-rule="evenodd" d="M38.3478 4.69565H18C10.6522 4.69565 4.69565 10.6522 4.69565 18C4.69565 25.3478 10.6522 31.3043 18 31.3043H38.3478C45.6956 31.3043 51.6522 25.3478 51.6522 18C51.6522 10.6522 45.6956 4.69565 38.3478 4.69565ZM18 0C8.05888 0 0 8.05888 0 18C0 27.9411 8.05887 36 18 36H38.3478C48.289 36 56.3478 27.9411 56.3478 18C56.3478 8.05888 48.289 0 38.3478 0H18Z" fill="url(#paint0_linear_478_10567)"/>
<path d="M24.2609 17.9999C24.2609 19.7288 22.8593 21.1304 21.1304 21.1304C19.4015 21.1304 18 19.7288 18 17.9999C18 16.2711 19.4015 14.8695 21.1304 14.8695C22.8593 14.8695 24.2609 16.2711 24.2609 17.9999Z" fill="url(#paint1_linear_478_10567)"/>
<path d="M38.3507 17.9999C38.3507 19.7288 36.9492 21.1304 35.2203 21.1304C33.4914 21.1304 32.0898 19.7288 32.0898 17.9999C32.0898 16.2711 33.4914 14.8695 35.2203 14.8695C36.9492 14.8695 38.3507 16.2711 38.3507 17.9999Z" fill="url(#paint2_linear_478_10567)"/>
<path d="M75.5699 29.619H71.3477L79.7286 6.4127H83.8873L92.2683 29.619H87.9826L86.1096 24.254H77.4429L75.5699 29.619ZM81.2842 13.3333L78.6492 20.8254H84.935L82.2683 13.3333C82.0778 12.7302 81.8556 12.0317 81.7921 11.5556C81.6969 12 81.5064 12.6984 81.2842 13.3333Z" fill="white"/>
<path d="M98.1836 6.4127V29.619H94.1201V6.4127H98.1836Z" fill="white"/>
<path d="M107.736 10.1587V6.4127H125.387V10.1587H118.593V29.619H114.53V10.1587H107.736Z" fill="white"/>
<path d="M123.277 21.746C123.277 16.8571 126.8 13.4921 131.658 13.4921C136.515 13.4921 140.038 16.8571 140.038 21.746C140.038 26.6349 136.515 30 131.658 30C126.8 30 123.277 26.6349 123.277 21.746ZM127.15 21.746C127.15 24.6032 128.991 26.5397 131.658 26.5397C134.324 26.5397 136.165 24.6032 136.165 21.746C136.165 18.8889 134.324 16.9524 131.658 16.9524C128.991 16.9524 127.15 18.8889 127.15 21.746Z" fill="white"/>
<path d="M141.13 21.746C141.13 16.8571 144.653 13.4921 149.511 13.4921C154.368 13.4921 157.891 16.8571 157.891 21.746C157.891 26.6349 154.368 30 149.511 30C144.653 30 141.13 26.6349 141.13 21.746ZM145.003 21.746C145.003 24.6032 146.844 26.5397 149.511 26.5397C152.177 26.5397 154.018 24.6032 154.018 21.746C154.018 18.8889 152.177 16.9524 149.511 16.9524C146.844 16.9524 145.003 18.8889 145.003 21.746Z" fill="white"/>
<path d="M163.808 29.619H159.967V6H163.808V29.619Z" fill="white"/>
<defs>
<linearGradient id="paint0_linear_478_10567" x1="54" y1="2.73913" x2="2.85828e-06" y2="31.6957" gradientUnits="userSpaceOnUse">
<stop stop-color="#701EFC"/>
<stop offset="1" stop-color="#CBB3F3"/>
</linearGradient>
<linearGradient id="paint1_linear_478_10567" x1="24.6857" y1="15.4284" x2="17.2028" y2="17.4949" gradientUnits="userSpaceOnUse">
<stop stop-color="#ECE0FF"/>
<stop offset="1" stop-color="#7C3AED"/>
</linearGradient>
<linearGradient id="paint2_linear_478_10567" x1="38.0564" y1="20.057" x2="34.0661" y2="14.4033" gradientUnits="userSpaceOnUse">
<stop stop-color="#7C3AED"/>
<stop offset="1" stop-color="#ECE0FF"/>
</linearGradient>
</defs>
</svg>
